X: 1
T: Lady Graham's Strathspey
C: (unknown)
R: Strathspey
%Q: 128
K: D
M: 4/4
L: 1/16
|: A2 |\
F3A D3A FABc d3A | Bd3 A3G E4 E3G | F3A D3C B,3D G,3D | A,3D A3G FD3 D2A2 | 
F3A D3A FABc d3A | Bd3 A3G E4 E3G | F3A D3C B,3D G,3D | A,3D A3G FD3 D2E2 | 
FA3 d3c BG3 G3B | G3c e3d cA3 A3G | ((3F2G2A2) D3C ((3B,2C2D2) G,3B, | A,D3 A3G FD3 D3E | 
((3F2G2A2) d3c BG3 G3B | ((3G2A2B2) e3d cA3 A3G | ((3F2G2A2) D3C ((3B,2C2D2) G,3B, | A,D3 A3G FD3 D2 :| 
